icons/book.svg

<svg width="48" height="48" viewBox="0 0 48 48" fill="none" xmlns="http://www.w3.org/2000/svg">
<path d="M30 19L25 19V14H23V19L18 19V21H23V26H25V21H30V19Z" fill="black"/>
<path fill-rule="evenodd" clip-rule="evenodd" d="M9 10C9 7.23858 11.2386 5 14 5H38C38.5523 5 39 5.44772 39 6V36C39 36.5523 38.5523 37 38 37H14C12.3431 37 11 38.3431 11 40V41H38V43H10C9.44772 43 9 42.5523 9 42V10ZM14 35C12.8744 35 11.8357 35.3719 11 35.9996V10C11 8.34315 12.3431 7 14 7H37V35H14Z" fill="black"/>
</svg>

<svg
  xmlns="http://www.w3.org/2000/svg"
  width="24"
  height="24"
  viewBox="0 0 24 24"
  fill="none"
  stroke="currentColor"
  stroke-width="2"
  stroke-linecap="round"
  stroke-linejoin="round"
>
  <path d="M30 19h-5v-5h-2v5h-5v2h5v5h2v-5h5z" />
  <path
    fill-rule="evenodd"
    d="M9 10a5 5 0 0 1 5-5h24a1 1 0 0 1 1 1v30a1 1 0 0 1-1 1H14a3 3 0 0 0-3 3v1h27v2H10a1 1 0 0 1-1-1zm5 25a4.98 4.98 0 0 0-3 1V10a3 3 0 0 1 3-3h23v28z"
    clip-rule="evenodd"
  />
</svg>
